X:1
T:Druckenkarlleken
Z:Anton Teljebäck
C:Ekor Anders 
R:Mazurka
D:LP - Ekor Anders (1973) 
N:En annan uppteckning finns på spillefolk.dk
M:3/4
L:1/8
K:D
A|dA F2 F2 | FG E3 A | BA BA cA | dA cA BA  |dA F2 F2 | FG E3 A | BA BA cA | d2 d4 :|
|:fA fA fA | g2 g3 (f | e)d ce a2 | ba fd A2 | fA fA fA | g2 g3 (f | e)d ce ac | d2 d4 :|

